src/assets/icons/user.svg

<?xml version="1.0" encoding="UTF-8"?>
<svg width="16px" height="17px" viewBox="0 0 16 17" version="1.1" xmlns="http://www.w3.org/2000/svg" xmlns:xlink="http://www.w3.org/1999/xlink">
    <!-- Generator: Sketch 41 (35326) - http://www.bohemiancoding.com/sketch -->
    <title>User</title>
    <desc>Created with Sketch.</desc>
    <defs></defs>
    <g id="Styleguide" stroke="none" stroke-width="1" fill="none" fill-rule="evenodd">
        <g id="ICONS" transform="translate(-81.000000, -301.000000)" fill="#B0BEC5">
            <path d="M88.855466,302.025126 C90.8190503,302.025126 92.0710034,303.235286 92.0710034,305.10802 L92.0710034,305.13399 L92.0710034,305.169357 C92.0710034,306.971015 90.6555428,308.271558 88.8637659,308.271558 C87.3196572,308.271558 86.1170054,307.288633 85.7689087,305.848161 L85.6669862,305.056935 C85.6885659,303.185226 86.9036675,302.025126 88.855466,302.025126 M84.6822891,305.132111 C84.75815,307.587628 86.5960742,309.296683 88.8806976,309.296683 C91.166483,309.296683 93.0113791,307.591216 93.085912,305.134332 L93.0669883,305.13399 L93.0669883,305.10802 C93.0669883,302.591678 91.2594416,301 88.8142986,301 C86.3696536,301 84.6011163,302.591678 84.6011163,305.10802 L84.6011163,305.131598 L84.6434457,305.131427 C84.6434457,305.131427 84.6844471,305.131598 84.6822891,305.132111 Z M88.9174162,318 C94.8730742,318 97,316.896623 97,315.113759 C97,312.496955 93.8138442,310.375628 88.8923506,310.375628 C83.9708571,310.375628 81,312.496955 81,315.113759 C81,316.896623 82.9617583,318 88.9174162,318 Z M88.8923506,311.400754 C91.047828,311.400754 92.9631071,311.843095 94.2856091,312.646281 C94.9273553,313.036171 96.0040151,313.875065 96.0040151,315.113759 C96.0040151,315.322714 96.0040151,315.811528 94.8385467,316.267025 C93.6365589,316.736704 91.644423,316.974874 88.9174162,316.974874 C86.2063453,316.974874 84.2454169,316.73807 83.0890784,316.271126 C81.9959849,315.829638 81.9959849,315.346121 81.9959849,315.113759 C81.9959849,312.962362 84.8962931,311.400754 88.8923506,311.400754 Z" id="User"></path>
        </g>
    </g>
</svg>

<svg width="16" height="17" viewBox="0 0 16 17" xmlns="http://www.w3.org/2000/svg"><g id="Styleguide" fill="none" fill-rule="evenodd"><g id="ICONS" transform="translate(-81 -301)" fill="#B0BEC5"><path d="M88.855 302.025c1.964 0 3.216 1.21 3.216 3.083v.061c0 1.802-1.415 3.103-3.207 3.103-1.544 0-2.747-.983-3.095-2.424l-.102-.791c.022-1.872 1.237-3.032 3.188-3.032m-4.173 3.107c.076 2.456 1.914 4.165 4.199 4.165s4.13-1.706 4.205-4.163h-.019v-.026c0-2.516-1.808-4.108-4.253-4.108-2.444 0-4.213 1.592-4.213 4.108v.024h.082zM88.917 318c5.956 0 8.083-1.103 8.083-2.886 0-2.617-3.186-4.738-8.108-4.738-4.921 0-7.892 2.121-7.892 4.738 0 1.783 1.962 2.886 7.917 2.886zm-.025-6.6c2.156 0 4.071.443 5.394 1.246.641.39 1.718 1.23 1.718 2.468 0 .209 0 .698-1.165 1.153-1.202.47-3.195.708-5.922.708-2.71 0-4.672-.237-5.828-.704-1.093-.441-1.093-.925-1.093-1.157 0-2.152 2.9-3.713 6.896-3.713z" id="User"/></g></g></svg>
